icon-svg/nighthawk.svg

<svg xmlns="http://www.w3.org/2000/svg" fill="#44739e" viewBox="0 0 24 24"><path d="m20.627 3.89-16.792.149L2 9.63h19.892zm.037 2.929.092 1.24-.856-.186c.1-.146.621-1.155.764-1.054m-5.026.332c-4.826 0-3.2-2.2.546-1.219-.045.457-1.446 1.19-.546 1.219m-4.053-.969c-.146-.415 1.31-1.17 1.357-.478-.578.342-.782 1.252-1.357.478m-.043.366-3.47-.587c.633-1.458 2.877-.757 3.9-.7-.325.7-1.241.788-.43 1.287m-3.963.676c-.232-.027-.29-.237-.521-.263.842-1.271 2.208-.874.521.263m4.214-.4c-.136.385-1.675 1.023-.519 1.193A12.13 12.13 0 0 1 7.629 7.5c.907-1.575 2.945-.932 4.164-.677ZM11.2 7.831c.686-1.43 2.147-.874.744.179-.365-.04-.378-.148-.744-.179m1.452-.193c.555-1.2 2.765.007 3.528-.025-.394 1.4-2.961.635-4.064.579.155-.392.335-.316.536-.554m3-.767c.5-.5.811-1.073 1.636-.674-.121.307-.714.8-.806 1.04-.239-.137-.754-.184-.826-.366Zm1.7-2.083c.829 0 2.044.308 2.761.23a11.4 11.4 0 0 0-.858 1.247c-1.15-.165-3.614 0-1.9-1.477zm2.933 1.845c-.122 1.987-2.486.919-3.622.79.371-1.6 2.565-.884 3.625-.79zm-.653-.467c.093-.421.589-.761.757-1.058l.179 1.331zm.768-1.725c-.214.88-2.66.063-3.3-.023a12.75 12.75 0 0 1 3.3.023m-3.317.259c-.318.662-.794 1.211-1.423.68.387-.508.779-1.059 1.423-.68m-.9-.262c-.193.32-.9.726-.811 1.134-4.972-.324-2.2-1.4.808-1.134zM12.742 4.3c-.589 1.1-2.563.27-3.392.074ZM7.673 5.309c.181-.4.523-.419.769-.731 1.295-.172-.291 1.193-.769.731m-3.3-.831L8.039 4.4c-.194.427-1.627.946-.476 1.174-.763-.124-3.793.058-3.192-1.1Zm-.423.852c.587-.105.182.284-.024.528-.395.253-.063-.271.024-.528m.635.211c4.974.418 1.142.61 2.663 1.746-1.127-.213-2.569-.319-3.663-.587.228-.453.704-.731 1-1.159M3.562 7c.234-.039.316.076.434.172-.268.075-.439.412-.668.446A1.79 1.79 0 0 0 3.562 7m-.294.882c1.351-1.194 2.692-.25 4.06-.293-1.118 1.566-2.835.711-4.236.647.108-.113.087-.253.176-.357Zm-.474 1.232.238-.614c4.692.27 4.101.776-.238.614m3.689-.539c.637-.3.846-1.037 1.563-.725-.31.638-1.22 1.317-1.563.725m4.174.536H7.163c.825-1.634 3.119-.9 4.356-.734-.054.223-.745.502-.862.734m.389 0c1.12-1.208 3.8-.492 4.854 0zm4.592-.468c.356-.6 1.139-1.42 1.67-.661-.568.651-.726 1.329-1.67.661m1.135.466c.693-2 2.708-.8 4.078-.669.805 1.331-3.731.415-4.078.669M2 10.262v7.97h20v-7.97zm10.288 2.391H11.6v-1.484h.684zM2.856 20.11h2.248l.49-.749 12.993-.029.227.778h2.24L22 18.611H2Z" class="cls-1" data-name="Colore riempimento 1"/></svg>

<svg xmlns="http://www.w3.org/2000/svg" fill="#44739e" width="24" height="24" viewBox="0 0 24 24">
  <path id="Colore_riempimento_1" data-name="Colore riempimento 1" class="cls-1" d="M 20.627,3.89 3.835,4.039 2,9.63 h 19.892 z m 0.037,2.929 0.092,1.24 L 19.9,7.873 C 20,7.727 20.521,6.718 20.664,6.819 Z m -5.026,0.332 c -4.826,0 -3.2,-2.2 0.546,-1.219 -0.045,0.457 -1.446,1.19 -0.546,1.219 z M 11.585,6.182 C 11.439,5.767 12.895,5.012 12.942,5.704 12.364,6.046 12.16,6.956 11.585,6.182 Z M 11.542,6.548 8.072,5.961 c 0.633,-1.458 2.877,-0.757 3.9,-0.7 -0.325,0.7 -1.241,0.788 -0.43,1.287 z M 7.579,7.224 C 7.347,7.197 7.289,6.987 7.058,6.961 7.9,5.69 9.266,6.087 7.579,7.224 Z m 4.214,-0.4 C 11.657,7.209 10.118,7.847 11.274,8.017 A 12.13,12.13 0 0 1 7.629,7.5 C 8.536,5.925 10.574,6.568 11.793,6.823 Z M 11.2,7.831 C 11.886,6.401 13.347,6.957 11.944,8.01 11.579,7.97 11.566,7.862 11.2,7.831 Z m 1.452,-0.193 c 0.555,-1.2 2.765,0.007 3.528,-0.025 -0.394,1.4 -2.961,0.635 -4.064,0.579 0.155,-0.392 0.335,-0.316 0.536,-0.554 z m 3,-0.767 c 0.5,-0.5 0.811,-1.073 1.636,-0.674 -0.121,0.307 -0.714,0.8 -0.806,1.04 C 16.243,7.1 15.728,7.053 15.656,6.871 Z m 1.7,-2.083 c 0.829,0 2.044,0.308 2.761,0.23 a 11.437,11.437 0 0 0 -0.858,1.247 c -1.15,-0.165 -3.614,0 -1.9,-1.477 z m 2.933,1.845 c -0.122,1.987 -2.486,0.919 -3.622,0.79 0.371,-1.6 2.565,-0.884 3.625,-0.79 z M 19.632,6.166 c 0.093,-0.421 0.589,-0.761 0.757,-1.058 l 0.179,1.331 z M 20.4,4.441 c -0.214,0.88 -2.66,0.063 -3.3,-0.023 a 12.746,12.746 0 0 1 3.3,0.023 z M 17.083,4.7 C 16.765,5.362 16.289,5.911 15.66,5.38 16.047,4.872 16.439,4.321 17.083,4.7 Z m -0.9,-0.262 c -0.193,0.32 -0.9,0.726 -0.811,1.134 -4.972,-0.324 -2.2,-1.4 0.808,-1.134 z M 12.742,4.3 C 12.153,5.4 10.179,4.57 9.35,4.374 Z M 7.673,5.309 C 7.854,4.909 8.196,4.89 8.442,4.578 9.737,4.406 8.151,5.771 7.673,5.309 Z M 4.373,4.478 8.039,4.4 C 7.845,4.827 6.412,5.346 7.563,5.574 6.8,5.45 3.77,5.632 4.371,4.474 Z M 3.95,5.33 C 4.537,5.225 4.132,5.614 3.926,5.858 3.531,6.111 3.863,5.587 3.95,5.33 Z M 4.585,5.541 C 9.559,5.959 5.727,6.151 7.248,7.287 6.121,7.074 4.679,6.968 3.585,6.7 3.813,6.247 4.289,5.969 4.585,5.541 Z M 3.562,7 C 3.796,6.961 3.878,7.076 3.996,7.172 3.728,7.247 3.557,7.584 3.328,7.618 A 1.785,1.785 0 0 0 3.562,7 Z M 3.268,7.882 C 4.619,6.688 5.96,7.632 7.328,7.589 6.21,9.155 4.493,8.3 3.092,8.236 3.2,8.123 3.179,7.983 3.268,7.879 Z M 2.794,9.114 3.032,8.5 C 7.724,8.77 7.133,9.276 2.794,9.114 Z M 6.483,8.575 C 7.12,8.275 7.329,7.538 8.046,7.85 7.736,8.488 6.826,9.167 6.483,8.575 Z m 4.174,0.536 H 7.163 C 7.988,7.477 10.282,8.211 11.519,8.377 11.465,8.6 10.774,8.879 10.657,9.111 Z m 0.389,0 c 1.12,-1.208 3.8,-0.492 4.854,0 z m 4.592,-0.468 c 0.356,-0.6 1.139,-1.42 1.67,-0.661 -0.568,0.651 -0.726,1.329 -1.67,0.661 z m 1.135,0.466 c 0.693,-2 2.708,-0.8 4.078,-0.669 0.805,1.331 -3.731,0.415 -4.078,0.669 z M 2,10.262 v 7.97 h 20 v -7.97 z m 10.288,2.391 H 11.6 v -1.484 h 0.684 z M 2.856,20.11 h 2.248 l 0.49,-0.749 12.993,-0.029 0.227,0.778 h 2.24 L 22,18.611 H 2 Z"/>
</svg>
